X:6
T:Fluff on the Carpet
C:Andy Hornby  1997
Q:1/4=180
I:abc2nwc
M:4/4
L:1/8
K:D
d2cd BdAF|DFAF GFEF|D2FA dAFA|BGed cdec|
d2cd BdAF|DFAF GFEF|DFAF GABG|[1ABcA d2 (3ABc:|[2ABcA Bcde
|:f2df Afdf|edcB Aceg|f2df Afdf|gfeg fdde|
f2df Afdf|edcB cdec|d2fd adfd|[1gece d3e:|[2gece d4|]
%%vskip 2.5cm
